teeny/outline/search-circle.svg

<svg width="15" height="15" viewBox="0 0 15 15" fill="none" xmlns="http://www.w3.org/2000/svg">
<path d="M8.5 8.5L10.5 10.5M7 9.5C5.61929 9.5 4.5 8.38071 4.5 7C4.5 5.61929 5.61929 4.5 7 4.5C8.38071 4.5 9.5 5.61929 9.5 7C9.5 8.38071 8.38071 9.5 7 9.5ZM7.5 14.5C3.63401 14.5 0.5 11.366 0.5 7.5C0.5 3.63401 3.63401 0.5 7.5 0.5C11.366 0.5 14.5 3.63401 14.5 7.5C14.5 11.366 11.366 14.5 7.5 14.5Z" stroke="black"/>
</svg>

<svg viewBox="0 0 15 15" xmlns="http://www.w3.org/2000/svg"><path fill="none" stroke="#000" d="M8.5 8.5l2 2M7 9.5C5.61 9.5 4.5 8.38 4.5 7c0-1.39 1.11-2.5 2.5-2.5 1.38 0 2.5 1.11 2.5 2.5 0 1.38-1.12 2.5-2.5 2.5Zm.5 5c-3.87 0-7-3.14-7-7 0-3.87 3.13-7 7-7 3.86 0 7 3.13 7 7 0 3.86-3.14 7-7 7Z"/></svg>
